src/assets/filled/CalendarEdit.svg

<svg width="24" height="24" viewBox="0 0 24 24"  xmlns="http://www.w3.org/2000/svg">
<path d="M16.75 3.56V2C16.75 1.59 16.41 1.25 16 1.25C15.59 1.25 15.25 1.59 15.25 2V3.5H8.74999V2C8.74999 1.59 8.40999 1.25 7.99999 1.25C7.58999 1.25 7.24999 1.59 7.24999 2V3.56C4.54999 3.81 3.23999 5.42 3.03999 7.81C3.01999 8.1 3.25999 8.34 3.53999 8.34H20.46C20.75 8.34 20.99 8.09 20.96 7.81C20.76 5.42 19.45 3.81 16.75 3.56Z" />
<path d="M20 9.83984H4C3.45 9.83984 3 10.2898 3 10.8398V16.9998C3 19.9998 4.5 21.9998 8 21.9998H16C19.5 21.9998 21 19.9998 21 16.9998V10.8398C21 10.2898 20.55 9.83984 20 9.83984ZM14.84 14.9898L14.34 15.4998H14.33L11.3 18.5298C11.17 18.6598 10.9 18.7998 10.71 18.8198L9.36 19.0198C8.87 19.0898 8.53 18.7398 8.6 18.2598L8.79 16.8998C8.82 16.7098 8.95 16.4498 9.08 16.3098L12.12 13.2798L12.62 12.7698C12.95 12.4398 13.32 12.1998 13.72 12.1998C14.06 12.1998 14.43 12.3598 14.84 12.7698C15.74 13.6698 15.45 14.3798 14.84 14.9898Z" />
</svg>

<?xml version="1.0" encoding="UTF-8"?>
<svg width="24" height="24" viewBox="0 0 24 24" xmlns="http://www.w3.org/2000/svg">
 <path d="m16.75 3.56v-1.56c0-0.41-0.34-0.75-0.75-0.75s-0.75 0.34-0.75 0.75v1.5h-6.5v-1.5c0-0.41-0.34-0.75-0.75-0.75s-0.75 0.34-0.75 0.75v1.56c-2.7 0.25-4.01 1.86-4.21 4.25-0.02 0.29 0.22 0.53 0.5 0.53h16.92c0.29 0 0.53-0.25 0.5-0.53-0.2-2.39-1.51-4-4.21-4.25z"/>
 <path d="m20 9.8398h-16c-0.55 0-1 0.44996-1 0.99996v6.16c0 3 1.5 5 5 5h8c3.5 0 5-2 5-5v-6.16c0-0.55-0.45-0.99996-1-0.99996zm-5.16 5.15-0.5 0.51h-0.01l-3.03 3.03c-0.13 0.13-0.4 0.27-0.59 0.29l-1.35 0.2c-0.49 0.07-0.83-0.28-0.76-0.76l0.19-1.36c0.03-0.19 0.16-0.45 0.29-0.59l3.04-3.03 0.5-0.51c0.33-0.33 0.7-0.57 1.1-0.57 0.34 0 0.71 0.16 1.12 0.57 0.9 0.9 0.61 1.61 0 2.22z"/>
</svg>
